X: 0
T: The Liberty Tree
P: piffero primo b0057
O: safd 028
F: http://ancients.sudburymuster.org/mus/med/pdf/libertyC1.pdf
Z: 2019 John Chambers <jc:trillian.mit.edu>
M: 6/8
L: 1/8
K: D
A |\
d2d dcB | A2A d3  | e2f e2d | c2B A2A |\
d2d dcB | A2A d3  | efe dcB | A3- A2 ||
A |\
d3  f3  | a3  f2d | B3  d3  | A3- A2d |\
fff f2d | fff f2f | a3  A3  | d3- d2 :|


